usr/share/icons/biglinux-icons-material/scalable/mimetypes/application-x-firmware.svg

<svg width="24" height="24" viewBox="0 0 24 24" fill="none" xmlns="http://www.w3.org/2000/svg">
<rect x="1" y="1" width="22" height="22" rx="6.6" fill="url(#paint0_radial_21_165)"/>
<path d="M10.75 21.0625H9.5V18.0491H10.75V21.0625Z" fill="#B3B3B3"/>
<path d="M11.375 19.8125H8.875V18.0045H11.375V19.8125Z" fill="#B3B3B3"/>
<path d="M14.5 21.0625H13.25V18.0491H14.5V21.0625Z" fill="#B3B3B3"/>
<path d="M15.125 19.8125H12.625V18.0045H15.125V19.8125Z" fill="#B3B3B3"/>
<path d="M17.9375 21.0625H16.6875V18.0491H17.9375V21.0625Z" fill="#B3B3B3"/>
<path d="M18.5625 19.8125H16.0625V18.0045H18.5625V19.8125Z" fill="#B3B3B3"/>
<path d="M7.3125 21.0625H6.0625V18.0491H7.3125V21.0625Z" fill="#B3B3B3"/>
<path d="M7.9375 19.8125H5.4375V18.0045H7.9375V19.8125Z" fill="#B3B3B3"/>
<path d="M10.75 20.75H9.5V17.7366H10.75V20.75Z" fill="#ECECEC"/>
<path d="M11.375 19.5H8.875V17.692H11.375V19.5Z" fill="#CCCCCC"/>
<path d="M14.5 20.75H13.25V17.7366H14.5V20.75Z" fill="#ECECEC"/>
<path d="M15.125 19.5H12.625V17.692H15.125V19.5Z" fill="#CCCCCC"/>
<path d="M17.9375 20.75H16.6875V17.7366H17.9375V20.75Z" fill="#ECECEC"/>
<path d="M18.5625 19.5H16.0625V17.692H18.5625V19.5Z" fill="#CCCCCC"/>
<path d="M10.7518 2.62581H9.50181V5.75086H10.7518V2.62581Z" fill="#ECECEC"/>
<path d="M11.375 3.87338H8.87502V5.68144H11.375V3.87338Z" fill="#CCCCCC"/>
<path d="M14.5018 2.62581H13.2518V5.75086H14.5018V2.62581Z" fill="#ECECEC"/>
<path d="M15.125 3.87338H12.625V5.68144H15.125V3.87338Z" fill="#CCCCCC"/>
<path d="M17.9393 2.62581H16.6893V5.75086H17.9393V2.62581Z" fill="#ECECEC"/>
<path d="M18.5625 3.87338H16.0625V5.68144H18.5625V3.87338Z" fill="#CCCCCC"/>
<path d="M7.3125 20.75H6.0625V17.7366H7.3125V20.75Z" fill="#ECECEC"/>
<path d="M7.9375 19.5H5.4375V17.692H7.9375V19.5Z" fill="#CCCCCC"/>
<path opacity="0.15" d="M20.4375 6.92188V17.7031C20.4375 18.6955 19.628 19.5 18.6295 19.5H5.37053C4.37198 19.5 3.5625 18.6955 3.5625 17.7031V6.92188C3.5625 5.92949 4.37198 5.125 5.37053 5.125H18.6295C19.628 5.125 20.4375 5.92949 20.4375 6.92188Z" fill="black"/>
<path d="M7.31434 2.62581H6.06431V5.75086H7.31434V2.62581Z" fill="#ECECEC"/>
<path d="M7.93752 3.87338H5.43752V5.68144H7.93752V3.87338Z" fill="#CCCCCC"/>
<path d="M20.4375 6.60938V17.3906C20.4375 18.383 19.628 19.1875 18.6295 19.1875H5.37053C4.37198 19.1875 3.5625 18.383 3.5625 17.3906V6.60938C3.5625 5.61699 4.37198 4.8125 5.37053 4.8125H18.6295C19.628 4.8125 20.4375 5.61699 20.4375 6.60938Z" fill="#666666"/>
<path d="M17.9375 14.5H6.0625V15.125H17.9375V14.5Z" fill="#808080"/>
<path d="M14.5 15.75H6.0625V16.375H14.5V15.75Z" fill="#808080"/>
<path opacity="0.15" d="M5.37031 4.8125C4.36866 4.8125 3.56244 5.61391 3.56244 6.60938V6.88281C3.56244 5.909 4.36866 5.125 5.37031 5.125H18.6297C19.6313 5.125 20.4376 5.909 20.4376 6.88281V6.60938C20.4376 5.61391 19.6313 4.8125 18.6297 4.8125H5.37031Z" fill="white"/>
<defs>
<radialGradient id="paint0_radial_21_165" cx="0" cy="0" r="1" gradientUnits="userSpaceOnUse" gradientTransform="translate(17.5 1) rotate(116.565) scale(24.5967)">
<stop stop-color="#629F60"/>
<stop offset="1" stop-color="#274F33"/>
</radialGradient>
</defs>
</svg>

<svg xmlns="http://www.w3.org/2000/svg" width="24" height="24" fill="none"><rect width="22" height="22" x="1" y="1" fill="url(#a)" rx="6.6"/><path fill="#B3B3B3" d="M10.75 21.063H9.5v-3.014h1.25v3.014Z"/><path fill="#B3B3B3" d="M11.375 19.813h-2.5v-1.808h2.5v1.808ZM14.5 21.063h-1.25v-3.014h1.25v3.014Z"/><path fill="#B3B3B3" d="M15.125 19.813h-2.5v-1.808h2.5v1.808ZM17.938 21.063h-1.25v-3.014h1.25v3.014Z"/><path fill="#B3B3B3" d="M18.563 19.813h-2.5v-1.808h2.5v1.808ZM7.313 21.063h-1.25v-3.014h1.25v3.014Z"/><path fill="#B3B3B3" d="M7.938 19.813h-2.5v-1.808h2.5v1.808Z"/><path fill="#ECECEC" d="M10.75 20.75H9.5v-3.013h1.25v3.013Z"/><path fill="#CCC" d="M11.375 19.5h-2.5v-1.808h2.5V19.5Z"/><path fill="#ECECEC" d="M14.5 20.75h-1.25v-3.013h1.25v3.013Z"/><path fill="#CCC" d="M15.125 19.5h-2.5v-1.808h2.5V19.5Z"/><path fill="#ECECEC" d="M17.938 20.75h-1.25v-3.013h1.25v3.013Z"/><path fill="#CCC" d="M18.563 19.5h-2.5v-1.808h2.5V19.5Z"/><path fill="#ECECEC" d="M10.752 2.626h-1.25V5.75h1.25V2.626Z"/><path fill="#CCC" d="M11.375 3.873h-2.5v1.808h2.5V3.873Z"/><path fill="#ECECEC" d="M14.502 2.626h-1.25V5.75h1.25V2.626Z"/><path fill="#CCC" d="M15.125 3.873h-2.5v1.808h2.5V3.873Z"/><path fill="#ECECEC" d="M17.94 2.626h-1.25V5.75h1.25V2.626Z"/><path fill="#CCC" d="M18.563 3.873h-2.5v1.808h2.5V3.873Z"/><path fill="#ECECEC" d="M7.313 20.75h-1.25v-3.013h1.25v3.013Z"/><path fill="#CCC" d="M7.938 19.5h-2.5v-1.808h2.5V19.5Z"/><path fill="#000" d="M20.438 6.922v10.781c0 .992-.81 1.797-1.808 1.797H5.37a1.802 1.802 0 0 1-1.808-1.797V6.922c0-.993.81-1.797 1.809-1.797H18.63c.998 0 1.808.804 1.808 1.797Z" opacity=".15"/><path fill="#ECECEC" d="M7.314 2.626h-1.25V5.75h1.25V2.626Z"/><path fill="#CCC" d="M7.938 3.873h-2.5v1.808h2.5V3.873Z"/><path fill="#666" d="M20.438 6.61v10.78c0 .993-.81 1.797-1.808 1.797H5.37a1.802 1.802 0 0 1-1.808-1.796V6.609c0-.992.81-1.796 1.809-1.796H18.63c.998 0 1.808.804 1.808 1.796Z"/><path fill="gray" d="M17.938 14.5H6.063v.625h11.875V14.5ZM14.5 15.75H6.062v.625H14.5v-.625Z"/><path fill="#fff" d="M5.37 4.813a1.798 1.798 0 0 0-1.808 1.796v.274c0-.974.807-1.758 1.808-1.758h13.26c1.001 0 1.808.784 1.808 1.758v-.274c0-.995-.807-1.796-1.808-1.796H5.37Z" opacity=".15"/><defs><radialGradient id="a" cx="0" cy="0" r="1" gradientTransform="rotate(116.565 8.441 5.908) scale(24.5967)" gradientUnits="userSpaceOnUse"><stop stop-color="#629F60"/><stop offset="1" stop-color="#274F33"/></radialGradient></defs></svg>
